Numix-GalliumOS/22/mimetypes/application-vector.svg

<?xml version="1.0" encoding="UTF-8" standalone="no"?>
<svg
   xmlns:dc="http://purl.org/dc/elements/1.1/"
   xmlns:cc="http://creativecommons.org/ns#"
   xmlns:rdf="http://www.w3.org/1999/02/22-rdf-syntax-ns#"
   xmlns:svg="http://www.w3.org/2000/svg"
   xmlns="http://www.w3.org/2000/svg"
   xmlns:sodipodi="http://sodipodi.sourceforge.net/DTD/sodipodi-0.dtd"
   xmlns:inkscape="http://www.inkscape.org/namespaces/inkscape"
   width="22"
   height="22"
   viewBox="0 0 22 22"
   id="svg2"
   version="1.1"
   inkscape:version="0.48.5 r10040"
   sodipodi:docname="application-vector.svg">
  <metadata
     id="metadata16">
    <rdf:RDF>
      <cc:Work
         rdf:about="">
        <dc:format>image/svg+xml</dc:format>
        <dc:type
           rdf:resource="http://purl.org/dc/dcmitype/StillImage" />
      </cc:Work>
    </rdf:RDF>
  </metadata>
  <defs
     id="defs14" />
  <sodipodi:namedview
     pagecolor="#ffffff"
     bordercolor="#666666"
     borderopacity="1"
     objecttolerance="10"
     gridtolerance="10"
     guidetolerance="10"
     inkscape:pageopacity="0"
     inkscape:pageshadow="2"
     inkscape:window-width="1280"
     inkscape:window-height="970"
     id="namedview12"
     showgrid="true"
     inkscape:zoom="11.313709"
     inkscape:cx="-2.1421691"
     inkscape:cy="17.506927"
     inkscape:window-x="0"
     inkscape:window-y="0"
     inkscape:window-maximized="1"
     inkscape:current-layer="svg2">
    <inkscape:grid
       type="xygrid"
       id="grid3004"
       empspacing="5"
       visible="true"
       enabled="true"
       snapvisiblegridlinesonly="true" />
  </sodipodi:namedview>
  <path
     style="fill:#04aa9c;fill-opacity:1"
     d="M 4,0 C 3.527343,0 3,0.527344 3,1 l 0,20 c 0,0.445312 0.554687,1 1,1 l 14,0 c 0.445313,0 0.992367,-0.554753 1,-1 L 19,6 13,0 z"
     id="path4"
     inkscape:connector-curvature="0"
     sodipodi:nodetypes="ssssssccs" />
  <path
     style="fill:#ffffff;fill-opacity:0.39200003"
     d="m 13,0 6,6 -5,0 C 13.554688,6 13,5.445312 13,5 z"
     id="path8"
     inkscape:connector-curvature="0"
     sodipodi:nodetypes="ccssc" />
  <path
     style="fill:#ffffff"
     d="M 14.431727,6.5304148 C 14.070104,6.5304148 13.74495,6.7108002 13.582588,7 L 10,7 C 10,7 9.309961,7.0022644 8.5793337,7.3675685 7.8560879,7.7328724 7,8.6225015 7,10 7,11.377497 7.8560879,12.146953 8.5793337,12.512256 8.9261974,12.687298 9,12.679922 9,12.679922 l 0,0.831812 -0.819191,0.842261 c -0.0369,-0.0076 -0.0738,-0.03044 -0.1180813,-0.03044 -0.2730621,0 -0.4944632,0.220704 -0.4944632,0.487071 0,0.266368 0.2214011,0.487072 0.4944632,0.487072 0.2656843,0 0.4870855,-0.220704 0.4870855,-0.487072 0,-0.04566 -0.014761,-0.08372 -0.02952,-0.121767 L 9.8708463,13.349414 9,14 l 3,0 0,-1 c 0,0 0.713425,0 0.992616,0.121099 C 13.487079,13.364634 14,13.942142 14,15 14,16.057859 13.505535,16.52357 13.011072,16.767106 12.509225,17.010642 12,17 12,17 l -3.5719522,0 c -0.1623607,-0.289203 -0.4797041,-0.461213 -0.841327,-0.461213 -0.5387446,0 -0.9741691,0.433796 -0.9741691,0.974143 0,0.540344 0.4354245,0.974142 0.9741691,0.974142 0.3616229,0 0.6789663,-0.197872 0.8413269,-0.487072 L 12,18 c 0,0 0.708487,0.01522 1.439115,-0.350083 C 14.16236,17.284613 15,16.377498 15,15 15,13.622503 14.143904,12.603583 13.420659,12.238281 12.900968,12 12,12 12,12 l 0,-0.771825 0.837633,-0.831633 c 0.04428,0.0076 0.07381,0.03044 0.118081,0.03044 0.273064,0 0.494465,-0.220703 0.494465,-0.4870716 0,-0.2663672 -0.221401,-0.4870705 -0.494465,-0.4870705 -0.265683,0 -0.487083,0.2207033 -0.487083,0.4870705 0,0.045663 0.02214,0.083722 0.02952,0.1217666 L 11.529978,11 9,11 9.00738,11.62944 C 8.5129125,11.385905 8,11.057858 8,10 8,8.9421416 8.5129125,8.4939182 9.0073757,8.2503823 9.5092223,8.0068463 10,8 10,8 l 3.582587,0 c 0.162362,0.2891998 0.487516,0.4786974 0.849139,0.4786974 0.538745,0 0.97417,-0.4337963 0.97417,-0.9741425 0,-0.5403448 -0.435425,-0.9741411 -0.974169,-0.9741401 z"
     id="path10"
     inkscape:connector-curvature="0"
     sodipodi:nodetypes="scccsccccssssccccccscccssscccsccccssssccccscccsss" />
  <path
     style="fill:#000000;fill-opacity:0.19599998"
     d="m 14,6 5,5 0,-5 z"
     id="path6"
     inkscape:connector-curvature="0"
     sodipodi:nodetypes="cccc" />
</svg>

<svg xmlns="http://www.w3.org/2000/svg" viewBox="0 0 22 22">
 <path d="m 4 0 c -0.473 0 -1 0.527 -1 1 l 0 20 c 0 0.445 0.555 1 1 1 l 14 0 c 0.445 0 0.992 -0.555 1 -1 l 0 -15 -6 -6 z" style="fill:#04aa9c;fill-opacity:1"/>
 <path d="m 13 0 6 6 -5 0 c -0.445 0 -1 -0.555 -1 -1 z" style="fill:#fff;fill-opacity:0.392"/>
 <path d="m 14.432 6.53 c -0.362 0 -0.687 0.18 -0.849 0.47 l -3.583 0 c 0 0 -0.69 0.002 -1.421 0.368 -0.723 0.365 -1.579 1.255 -1.579 2.632 0 1.377 0.856 2.147 1.579 2.512 0.347 0.175 0.421 0.168 0.421 0.168 l 0 0.832 -0.819 0.842 c -0.037 -0.008 -0.074 -0.03 -0.118 -0.03 -0.273 0 -0.494 0.221 -0.494 0.487 0 0.266 0.221 0.487 0.494 0.487 0.266 0 0.487 -0.221 0.487 -0.487 0 -0.046 -0.015 -0.084 -0.03 -0.122 l 1.351 -1.339 -0.871 0.651 l 3 0 0 -1 c 0 0 0.713 0 0.993 0.121 c 0.494 0.244 1.01 0.821 1.01 1.879 0 1.058 -0.494 1.524 -0.989 1.767 -0.502 0.244 -1.011 0.233 -1.011 0.233 l -3.572 0 c -0.162 -0.289 -0.48 -0.461 -0.841 -0.461 -0.539 0 -0.974 0.434 -0.974 0.974 0 0.54 0.435 0.974 0.974 0.974 0.362 0 0.679 -0.198 0.841 -0.487 l 3.572 0 c 0 0 0.708 0.015 1.439 -0.35 c 0.723 -0.365 1.561 -1.272 1.561 -2.65 0 -1.377 -0.856 -2.396 -1.579 -2.762 -0.52 -0.238 -1.421 -0.238 -1.421 -0.238 l 0 -0.772 0.838 -0.832 c 0.044 0.008 0.074 0.03 0.118 0.03 0.273 0 0.494 -0.221 0.494 -0.487 0 -0.266 -0.221 -0.487 -0.494 -0.487 -0.266 0 -0.487 0.221 -0.487 0.487 0 0.046 0.022 0.084 0.03 0.122 l -0.968 0.938 -2.53 0 0.007 0.629 c -0.494 -0.244 -1.01 -0.572 -1.01 -1.629 0 -1.058 0.513 -1.506 1.01 -1.75 0.502 -0.244 0.993 -0.25 0.993 -0.25 l 3.583 0 c 0.162 0.289 0.488 0.479 0.849 0.479 0.539 0 0.974 -0.434 0.974 -0.974 0 -0.54 -0.435 -0.974 -0.974 -0.974 z" style="fill:#fff"/>
 <path d="m 14 6 5 5 0 -5 z" style="fill:#000;fill-opacity:0.196"/>
</svg>
